source/img/vector/traktor-9-vector.svg

<svg width="316" height="173" viewBox="0 0 316 173" fill="none" xmlns="http://www.w3.org/2000/svg">
<path d="M99.2052 137.008C99.2052 142.386 94.8455 146.746 89.4674 146.746C84.0894 146.746 79.7296 142.386 79.7296 137.008C79.7296 131.63 84.0894 127.27 89.4674 127.27C94.8455 127.27 99.2052 131.63 99.2052 137.008Z" fill="#A0A1A2"/>
<path fill-rule="evenodd" clip-rule="evenodd" d="M89.5651 159.729C101.951 159.729 111.992 149.688 111.992 137.302C111.992 124.916 101.951 114.876 89.5651 114.876C77.1792 114.876 67.1385 124.916 67.1385 137.302C67.1385 149.688 77.1792 159.729 89.5651 159.729ZM89.5651 172.712C109.122 172.712 124.975 156.859 124.975 137.302C124.975 117.746 109.122 101.892 89.5651 101.892C70.0085 101.892 54.1548 117.746 54.1548 137.302C54.1548 156.859 70.0085 172.712 89.5651 172.712Z" fill="#A0A1A2"/>
<path d="M255.073 137.008C255.073 142.386 250.713 146.746 245.335 146.746C239.957 146.746 235.597 142.386 235.597 137.008C235.597 131.63 239.957 127.27 245.335 127.27C250.713 127.27 255.073 131.63 255.073 137.008Z" fill="#A0A1A2"/>
<path fill-rule="evenodd" clip-rule="evenodd" d="M245.431 159.729C257.816 159.729 267.857 149.688 267.857 137.302C267.857 124.916 257.816 114.876 245.431 114.876C233.045 114.876 223.004 124.916 223.004 137.302C223.004 149.688 233.045 159.729 245.431 159.729ZM245.431 172.712C264.987 172.712 280.841 156.859 280.841 137.302C280.841 117.746 264.987 101.892 245.431 101.892C225.874 101.892 210.02 117.746 210.02 137.302C210.02 156.859 225.874 172.712 245.431 172.712Z" fill="#A0A1A2"/>
<path d="M61.735 98.5744L64.1038 101.417L67.657 105.444C72.3946 99.9483 84.9493 99.1271 89.6868 98.5744C119.439 100.28 127.982 124.473 129.483 137.186H133.983C132.278 112.74 115.586 95.8898 107.453 90.5205H73.1053C65.1461 90.71 62.2088 95.9687 61.735 98.5744Z" fill="#A0A1A2"/>
<path d="M205.047 132.213H200.073C201.778 110.419 217.365 93.7593 224.945 88.1533H268.531L279.664 90.759V99.0498C284.591 103.598 291.666 115.474 294.588 120.843H292.693L286.297 110.42L282.981 109.472C271.421 92.4169 249.739 91.6273 240.342 93.3644C214.38 98.102 205.995 121.237 205.047 132.213Z" fill="#A0A1A2"/>
<path d="M209.075 102.601V84.5986H233.948L239.87 86.9674H224.235L209.075 102.601Z" fill="#A0A1A2"/>
<rect x="216.655" y="76.3093" width="3.31632" height="7.10639" fill="#A0A1A2"/>
<path d="M282.98 95.258H279.664L278.479 99.5221L281.559 103.312L285.349 100.706V98.1008L289.849 93.6001L288.902 98.1008V100.706V111.366L292.455 117.999V100.706V98.1008C293.213 96.3952 292.139 93.758 291.508 92.6525L293.64 90.2837L298.377 86.7306L301.457 82.9405C305.436 82.1825 304.536 78.9923 303.588 77.492C300.177 75.4075 298.693 79.1502 298.377 81.2821H296.482L291.508 88.3885L282.98 95.258Z" fill="#A0A1A2"/>
<path d="M302.642 124.869L283.928 135.292L279.901 153.769H285.586L286.771 151.874H295.535V153.769H312.354V151.874H310.932V148.084H312.354V146.425H309.037V144.53H305.247V146.425L295.535 146.899V148.084L287.955 146.899H282.981V143.346L306.195 129.133C311.88 129.323 314.091 127.317 314.486 126.291C316.191 123.259 313.775 121.395 312.354 120.842C313.491 124.822 311.88 125.185 310.932 124.869L309.037 122.501L306.195 119.658L302.642 120.842V124.869Z" fill="#A0A1A2"/>
<path d="M192.018 118.947V113.973L202.677 113.025L201.73 115.631H197.703L196.519 118.947H192.018Z" fill="#A0A1A2"/>
<rect x="203.862" y="90.5205" width="4.26383" height="7.10639" fill="#A0A1A2"/>
<path fill-rule="evenodd" clip-rule="evenodd" d="M47.2854 131.028H50.6017C54.0128 118.331 62.6036 109.314 66.4727 106.393C62.1141 105.824 59.919 101.102 59.3663 98.8126C59.7453 93.5065 67.8939 89.3374 71.9209 87.9161L108.4 89.5743C111.239 90.8466 113.841 92.6426 116.217 94.8035V93.8372H163.119L163.119 93.3643H164.067V148.794H177.095V145.715L185.386 143.82L192.256 136.003H196.283L203.863 109.946V102.603H193.914L189.413 100.708L183.491 102.603H178.28L186.72 91.4682H130.903V90.5207H187.439L189.413 87.9161V59.4904H185.386L183.491 61.6225L181.122 59.4904L175.674 63.0438V59.4904L174.016 58.3062L171.913 24.1958H132.8V22.7745H175.674V18.0365L173.305 15.6678L161.698 14.9571C161.698 10.5984 159.645 9.82472 158.619 9.98271C156.345 9.79321 155.934 13.22 156.013 14.9571L130.904 14.2465V5.48189L133.036 3.34997C131.899 1.07584 128.14 0.665298 126.403 0.744295C122.613 0.365287 120.402 2.32349 119.771 3.34997L122.376 5.48189V14.9571L108.4 18.0365L99.8727 19.2209V21.1159V21.8266L100.017 22.7745H121.903V24.1958H100.233L101.531 32.723H87.7918C84.1913 38.4082 89.9237 47.2517 93.2401 50.9628L92.2925 38.1713H89.9237V34.3812H101.531L102.241 36.0394L104.61 36.75L110.769 80.3359H105.795V66.5968C103.9 61.2907 99.4779 59.6484 97.5039 59.4904C65.8568 60.059 21.1497 71.7292 2.75203 77.4933L2.0414 79.1515L2.0042 80.0133L18.6225 75.3601L11.0423 107.339V111.603L4.40967 113.498L0.856477 111.603V108.997L4.40967 111.603L9.38414 110.181V107.339L16.7274 77.4921L1.93191 81.6878L0.620117 112.078V114.683V123.797L26.2023 117.053L29.0448 112.552V117.053L0.898114 125.82L3.93643 131.028L30.467 133.634V139.793H47.2854V131.028ZM135.642 133.634C133.838 124.164 127.818 105.736 116.708 95.2585H163.119L163.119 149.742H163.12V151.874H143.222V147.61L137.773 145.715L135.642 133.634ZM31.8867 132.211H45.6257V138.844H31.8867V132.211ZM161.697 146.899H144.642V150.689H161.697V146.899ZM169.752 137.896V131.5L176.384 132.922V131.5H180.174L182.306 135.527L176.384 139.791L172.831 137.896H169.752ZM160.275 29.6421H135.403V84.5982H165.724L160.275 29.6421ZM119.771 28.4585H106.269H103.9L112.902 78.6769L116.455 72.2812V56.6471L119.771 52.1464V28.4585ZM160.749 126.051H144.642V137.421H160.749V126.051ZM144.642 104.259H160.749V113.735H144.642V104.259ZM30.4666 80.0977V76.5445L74.2894 69.4381L73.3419 72.5175L30.4666 80.0977ZM29.5193 82.4665V86.0197L72.3946 78.4396L73.3421 75.3601L29.5193 82.4665ZM29.5193 92.6527V89.0995L73.3421 81.9931L72.3946 85.0725L29.5193 92.6527ZM29.5195 94.4702V97.6286L64.2832 90.8907L65.0515 88.1534L29.5195 94.4702ZM34.7313 107.812L57.2349 100.943V103.075L35.9157 109.707L33.31 111.129V113.971H42.5483C43.6854 113.971 43.0221 115.55 42.5483 116.34H30.9412V109.707L34.7313 107.812ZM117.164 81.9931H97.74V86.2569H117.164V81.9931ZM127.588 29.8803H129.01V89.1003H127.588V29.8803ZM87.5558 62.3292L74.0537 87.6753H75.9487L89.214 62.3292H87.5558Z" fill="#A0A1A2"/>
</svg>

<svg width="316" height="173" fill="none" xmlns="http://www.w3.org/2000/svg"><path d="M99.205 137.008c0 5.378-4.36 9.738-9.738 9.738-5.378 0-9.737-4.36-9.737-9.738 0-5.378 4.36-9.738 9.737-9.738 5.379 0 9.738 4.36 9.738 9.738z" fill="#A0A1A2"/><path fill-rule="evenodd" clip-rule="evenodd" d="M89.565 159.729c12.386 0 22.427-10.041 22.427-22.427s-10.041-22.426-22.427-22.426-22.427 10.04-22.427 22.426 10.041 22.427 22.427 22.427zm0 12.983c19.557 0 35.41-15.853 35.41-35.41 0-19.556-15.853-35.41-35.41-35.41-19.556 0-35.41 15.854-35.41 35.41 0 19.557 15.853 35.41 35.41 35.41z" fill="#A0A1A2"/><path d="M255.073 137.008c0 5.378-4.36 9.738-9.738 9.738-5.378 0-9.738-4.36-9.738-9.738 0-5.378 4.36-9.738 9.738-9.738 5.378 0 9.738 4.36 9.738 9.738z" fill="#A0A1A2"/><path fill-rule="evenodd" clip-rule="evenodd" d="M245.431 159.729c12.385 0 22.426-10.041 22.426-22.427s-10.041-22.426-22.426-22.426c-12.386 0-22.427 10.04-22.427 22.426s10.041 22.427 22.427 22.427zm0 12.983c19.556 0 35.41-15.853 35.41-35.41 0-19.556-15.854-35.41-35.41-35.41-19.557 0-35.411 15.854-35.411 35.41 0 19.557 15.854 35.41 35.411 35.41z" fill="#A0A1A2"/><path d="M61.735 98.574l2.369 2.843 3.553 4.027c4.738-5.496 17.292-6.317 22.03-6.87 29.752 1.706 38.295 25.899 39.796 38.612h4.5c-1.705-24.446-18.397-41.296-26.53-46.666H73.105c-7.959.19-10.896 5.449-11.37 8.054zm143.312 33.639h-4.974c1.705-21.794 17.292-38.454 24.872-44.06h43.586l11.133 2.606v8.29c4.927 4.549 12.002 16.425 14.924 21.794h-1.895l-6.396-10.423-3.316-.948c-11.56-17.055-33.242-17.845-42.639-16.108-25.962 4.738-34.347 27.873-35.295 38.849z" fill="#A0A1A2"/><path d="M209.075 102.601V84.599h24.873l5.922 2.368h-15.635l-15.16 15.634zm7.58-26.292h3.316v7.106h-3.316zm66.325 18.949h-3.316l-1.185 4.264 3.08 3.79 3.79-2.606v-2.605l4.5-4.5-.947 4.5v13.265l3.553 6.633V98.101c.758-1.706-.316-4.343-.947-5.448l2.132-2.37 4.737-3.552 3.08-3.79c3.979-.758 3.079-3.949 2.131-5.449-3.411-2.085-4.895 1.658-5.211 3.79h-1.895l-4.974 7.106-8.528 6.87zm19.662 29.611l-18.714 10.423-4.027 18.477h5.685l1.185-1.895h8.764v1.895h16.819v-1.895h-1.422v-3.79h1.422v-1.659h-3.317v-1.895h-3.79v1.895l-9.712.474v1.185l-7.58-1.185h-4.974v-3.553l23.214-14.213c5.685.19 7.896-1.816 8.291-2.842 1.705-3.032-.711-4.896-2.132-5.449 1.137 3.98-.474 4.343-1.422 4.027l-1.895-2.368-2.842-2.843-3.553 1.184v4.027zm-110.624-5.922v-4.974l10.659-.948-.947 2.606h-4.027l-1.184 3.316h-4.501zm11.844-28.427h4.264v7.106h-4.264z" fill="#A0A1A2"/><path fill-rule="evenodd" clip-rule="evenodd" d="M47.285 131.028h3.317c3.41-12.697 12.002-21.714 15.87-24.635-4.358-.569-6.553-5.291-7.106-7.58.38-5.306 8.528-9.476 12.555-10.897l36.479 1.658c2.839 1.273 5.441 3.069 7.817 5.23v-.967h46.902v-.473h.948v55.43h13.028v-3.079l8.291-1.895 6.87-7.817h4.027l7.58-26.057v-7.343h-9.949l-4.501-1.895-5.922 1.895h-5.211l8.44-11.135h-55.817v-.947h56.536l1.974-2.605V59.49h-4.027l-1.895 2.133-2.369-2.133-5.448 3.554V59.49l-1.658-1.184-2.103-34.11H132.8v-1.422h42.874v-4.738l-2.369-2.368-11.607-.71c0-4.36-2.053-5.133-3.079-4.975-2.274-.19-2.685 3.237-2.606 4.974l-25.109-.71V5.481l2.132-2.132c-1.137-2.274-4.896-2.685-6.633-2.606-3.79-.379-6.001 1.58-6.632 2.606l2.605 2.132v9.475l-13.976 3.08-8.527 1.184v2.605l.144.948h21.886v1.422h-21.67l1.298 8.527h-13.74c-3.6 5.685 2.133 14.529 5.45 18.24l-.948-12.792h-2.37v-3.79h11.608l.71 1.658 2.369.711 6.159 43.586h-4.974v-13.74c-1.895-5.305-6.317-6.948-8.291-7.106-31.647.569-76.354 12.24-94.752 18.003l-.71 1.659-.038.861 16.618-4.653-7.58 31.979v4.264l-6.632 1.895-3.554-1.895v-2.606l3.554 2.606 4.974-1.422v-2.842l7.343-29.847-14.795 4.196-1.312 30.39v11.72l25.582-6.744 2.843-4.501v4.501L.898 125.82l3.038 5.208 26.531 2.606v6.159h16.818v-8.765zm88.357 2.606c-1.804-9.47-7.824-27.898-18.934-38.375h46.411v54.483h.001v2.132h-19.898v-4.264l-5.449-1.895-2.131-12.081zm-103.755-1.423h13.739v6.633h-13.74v-6.633zm129.81 14.688h-17.055v3.79h17.055v-3.79zm8.055-9.003V131.5l6.632 1.422V131.5h3.79l2.132 4.027-5.922 4.264-3.553-1.895h-3.079zm-9.477-108.254h-24.872v54.956h30.321l-5.449-54.956zm-40.504-1.183H103.9l9.002 50.218 3.553-6.396V56.647l3.316-4.5V28.458zm40.978 97.592h-16.107v11.37h16.107v-11.37zm-16.107-21.792h16.107v9.476h-16.107v-9.476zM30.467 80.098v-3.553l43.822-7.107-.947 3.08-42.875 7.58zm-.948 2.368v3.554l42.876-7.58.947-3.08-43.823 7.106zm0 10.187V89.1l43.823-7.107-.947 3.08-42.876 7.58zm0 1.817v3.159l34.764-6.738.769-2.738-35.533 6.317zm5.212 13.342l22.504-6.869v2.132l-21.32 6.632-2.605 1.422v2.842h9.238c1.137 0 .474 1.579 0 2.369H30.941v-6.633l3.79-1.895zm82.433-25.819H97.74v4.264h19.424v-4.264zm10.424-52.113h1.422V89.1h-1.422V29.88zM87.556 62.33L74.054 87.674h1.895L89.214 62.33h-1.658z" fill="#A0A1A2"/></svg>
